!!!!SEGMENT:037-1a-TR-001.krn
!!!COM: Chopin, Fryderyk
!!!OTL: 1. Nocturne
!!!OPS: Op. 37
!!!OPR: Deux Nocturnes Pour Le Piano
!!!OCL: Eugene-Theodore Troupenas
!!!NIFC-rismID: 1001007195
!!!OMD: LENTO.
!!!system-decoration: {(s1,s2)}
**kern	**kern	**dynam
*part1	*part1	*part1
*staff2	*staff1	*
*clefF4	*clefG2	*
*k[b-e-]	*k[b-e-]	*
*M4/4	*M4/4	*
*met(c)	*met(c)	*
!	!LO:TX:i:t=sostenuto	!
4r	[4dd	.
=1	=1	=1
*ped	*	*
(4GG	(>4dd]	.
4d 4D	8ccL	.
.	8b-J	[
.	8qa/L	.
.	8qb-/	.
.	8qcc/J	.
*Xped	*	*
4e- 4c 4F#X	8b-L\	.
.	8aJ)	.
4d 4D	4r	.
=2	=2	=2
4e- 4B- 4G	8r	.
.	(>8b-/	.
4d 4D	12b-L	.
.	12a	.
.	12gJ	.
4e- 4c 4A	2f#X)	.
4d 4D)	.	.
=3	=3	=3
*ped	*	*
(4GG	(>4g	.
4d 4B- 4G	8aL	.
*Xped	*	*
.	8b-J	.
*ped	*	*
4CC	4cc	.
4g 4e- 4c 4G)	8ddL	.
*Xped	*	*
.	8ee-J)	.
=4	=4	=4
*ped	*	*
(4FF	[2a	.
4g 4e-	.	.
*Xped	*	*
4f 4d	>8.aL]	.
.	16ggJk	.
*	*Xtuplet	*
4e- 4c)	(12ggL	.
.	12ff	.
.	12ee-J)	.
*	*tuplet	*
=5	=5	=5
*	*^	*
!!linebreak:original
*ped	*	*	*
4BB- 4BBB-	4dd	2ryy	.
.	(<8qd/	.	.
.	8qd/L	.	.
.	8qf/	.	.
.	8qb-/J	.	.
*	*Xtuplet	*	*
4F	12ddL/	.	.
*Xped	*	*	*
.	12cc	.	.
.	12b-J)	.	.
*	*tuplet	*	*
.	.	[<8qc/L	.
.	.	[<8qd/	.
.	.	[8qf#X/J	.
*ped	*	*	*
4DD	8b-L	4f#] 4d] 4c]	.
.	8aJ	.	.
[4D	4r	4r	.
*Xped	*	*	*
*	*v	*v	*
=6	=6	=6
.	(<8qB-/L	.
.	8qd/	.
.	8qg/J	.
*ped	*	*
4D]\ 4GG	(8b-L)/	.
.	16r	.
.	16b-Jk	.
.	8qb-L/	.
.	8qccJ/	.
4d 4D	12b-L	.
.	12a^>	.
.	12g^>J	.
*Xped	*	*
4e- 4c 4A	6f#X^>)	.
.	12ryy	.
4d 4D	4r	.
=7	=7	=7
*^	*^	*
2ryy	4B- 4E-	(4g	4e-/	.
.	4G 4BB-	8.aL	4d	.
.	.	16b-Jk	.	.
2A	4E- 4AA	4cc 4g	2c	.
.	[>4D	4dd 4f#X)	.	.
*v	*v	*	*	*
=8	=8	=8	=8
*ped	*	*	*
4D]\ 4GG	(4.g	4rA	.
4d 4G	.	4B-	.
*Xped	*	*	*
.	8g	.	<
.	16qg/LL	.	.
.	16qa/JJ	.	.
*ped	*	*	*
4FF	2at	2ryy	.
4f 4c 4F	.	.	.
*Xped	*	*	*
*	*v	*v	*
.	16qg/LL	[
.	16qa/JJ)	.
=9	=9	=9
*^	*	*
(4d 4B-	4ryy	(4b-	.
4f\	2F	4bn)	.
4e-\ 4A	.	8r	.
.	.	(>4cc^<	.
4f\	[>4F	.	.
.	.	8cc#X	.
=10	=10	=10	=10
!!linebreak:original
4d\ 4B-	4F]	4dd	.
.	.	8qdd/L	.
.	.	8qee-/	.
.	.	8qdd/	.
.	.	8qcc#X/	.
.	.	8qdd/J	.
.	.	8qdd/	.
4f\	2F	8.ggL	.
.	.	16ffJk	.
4e-\ 4A	.	8ff	.
.	.	4ccny	.
4f\	4F)	.	.
.	.	8cc#X)	.
*clefG2	*	*	*
=11	=11	=11	=11
(4f	2d 2B-	(4dd	.
2g	.	4ee-)	.
.	2c#X [2A	4r	.
4g	.	(>4een	.
=12	=12	=12	=12
4f	4d 4A]	4ff	.
.	.	8qff/L	.
.	.	8qgg/	.
.	.	8qff/	.
.	.	8qeen/	.
.	.	8qff/J	.
.	.	8qff/	.
4a	2A	8.bb-L	.
.	.	16aaJk	.
4g 4c#X	.	8aa	.
.	.	4dd#X	.
4a 4A)	4ryy	.	.
.	.	8een)	.
*v	*v	*	*
*clefF4	*	*
=13	=13	=13
*ped	*	*
4D	(>4ff	.
4f 4d 4A	8.ggL	.
*Xped	*	*
.	16ffJk	.
*ped	*	*
4E-	4ee-	.
4g 4e- 4B- 4G	8.b-L	.
*Xped	*	*
.	16ccJk	.
=14	=14	=14
*ped	*	*
4BB-	4dd	.
.	8qdd/	.
.	8qdd/L	.
.	8qff/J	.
4d 4B- 4F	8ee-L	.
*Xped	*	*
.	16r	.
.	16ddJk	.
*ped	*	*
4C	4cc	.
4e- 4G 4E-	8.gL	.
*Xped	*	*
.	16aJk)	.
=15	=15	=15
!!linebreak:original
*ped	*	*
4GG	(4b-/	.
4d 4B- 4G	8.aL	.
*Xped	*	*
.	16b-Jk	.
*ped	*	*
4EE-	4cc	.
.	8qcc/L	.
.	8qdd/	.
.	8qcc/J	.
4g 4c 4G	16bnLL	.
.	16cc	.
.	16dd	.
*Xped	*	*
.	8qqff/	.
.	16ee-JJ)	.
=16	=16	=16
*	*^	*
*ped	*	*	*
4DD	4dd\	8rc	.
.	.	2.d	.
*clefG2	*	*	*
(>4f#X 4A	(4.dd\	.	.
4g 4B-	.	.	.
.	8dd\	.	.
8g#XL 8Bn	12ddL\	.	.
.	12dd)	.	.
8aJ 8c)	.	8ryy	.
.	12ddJ	.	.
*	*v	*v	*
*clefF4	*	*
=17	=17	=17
*ped	*	*
4GGG	(4dd	.
4d 4D	8.ccL	.
.	16b-Jk	.
.	8qa/L	.
.	8qb-/	.
.	8qcc/J	.
4e- 4c 4F#X	8b-L\	.
*Xped	*	*
.	8aJ)	.
4d 4D	4r	.
=18	=18	=18
4e- 4B- 4G	8r	.
.	(8b-	.
.	8qb-/LL	.
.	8qcc/JJ	.
*	*Xtuplet	*
4d 4D	12b-L	.
.	12a	.
.	12gJ	.
*	*tuplet	*
4e- 4c 4A	4f#X)	.
4d 4D	4r	.
=19	=19	=19
*ped	*	*
4GG	(>4g	.
4d 4B- 4G	8aL	.
*Xped	*	*
.	8b-J	.
*ped	*	*
4CC	4cc	.
.	8qcc/L	.
.	8qcc/	.
.	8qdd/	.
.	8qcc/	.
.	8qbn/	.
.	8qcc/J	.
4g 4e- 4c 4G	&(>8.ddL	.
*Xped	*	*
.	16ee-Jk	.
=20	=20	=20
*	*^	*
!!linebreak:original
*ped	*	*	*
4FF	4a&)	1a)	.
(4g 4e-	(>4.aa^>\	.	.
4f 4d	.	.	.
*Xped	*	*	*
.	8gg\	.	.
4e- 4c)	12ggL\	.	.
.	12ff	.	.
.	12ee-J)	.	.
=21	=21	=21	=21
*ped	*	*	*
4BB- 4BBB-	2ryy	(4dd	ff
.	.	8qd/L	.
.	.	8qf/	.
.	.	8qb-/J	.
4F	.	12ddL	.
.	.	12cc	.
*Xped	*	*	*
.	.	12b-J	.
.	[8qc/L	.	.
.	[8qd/	.	.
.	[8qf#X/J	.	.
*ped	*	*	*
4DD	8b-L	4f#] 4d] 4c]	.
.	8aJ)	.	.
[>4D	4r	4ryy	.
*Xped	*	*	*
*	*v	*v	*
=22	=22	=22
.	(<8qB-/L	.
.	8qd/	.
.	8qg/J	.
*ped	*	*
4D]\ 4GG	(8b-L)	.
.	16r	.
.	16b-Jk	.
.	8qb-/LL	.
.	8qcc/JJ	.
*	*Xtuplet	*
(4d 4D	12b-^>L	.
.	12a^>	.
.	12g^>J	.
*	*tuplet	*
*Xped	*	*
4e- 4c 4A	4f#X^>)	.
4d 4D)	4r	.
=23	=23	=23
*^	*^	*
2ryy	4B- 4E-	(4g	4e-/	p<
.	4G 4BB-	8aL	4d	.
.	.	8b-Jk	.	.
2A	4E- 4AA	4cc 4g	2c	.
.	[>4D	4dd 4f#X)	.	.
.	.	.	.	[
*v	*v	*	*	*
=24	=24	=24	=24
4D]\ 4GG	(4.g	4rA	.
4d 4G	.	4B-	.
.	8g	.	<
.	16qg/LL	.	.
.	16qa/JJ	.	.
4FF	2at	2ryy	.
4f 4e- 4c 4F	.	.	.
*	*v	*v	*
.	16qg/LL	[
.	16qa/JJ)	.
=25	=25	=25
*^	*	*
!!linebreak:original
(>4d 4B-	4ryy	(4b-	.
4f\	2F	4bn)	.
4e-\ 4A	.	8r	.
.	.	(4cc^<	.
4f\	[>4F	.	.
.	.	8cc#X)	.
=26	=26	=26	=26
4d\ 4B-	4F]	(4dd	.
.	.	8qdd/L	.
.	.	8qee-/	.
.	.	8qdd/	.
.	.	8qcc#X/	.
.	.	8qdd/J	.
.	.	8qdd/	.
4f\	2F	8.ggL	.
.	.	16ffJk	.
4e-\ 4A	.	8ff	.
.	.	4ccny	.
4f\	4F	.	.
.	.	8cc#X)	.
*clefG2	*	*	*
=27	=27	=27	=27
4f	2d 2B-	(4dd	.
2g	.	4ee-)	.
.	2c#X [2A	4r	.
4g	.	(4een	.
=28	=28	=28	=28
4f	4d 4A]	4ff	.
.	.	8qff/L	.
.	.	8qgg/	.
.	.	8qff/	.
.	.	8qeen/	.
.	.	8qff/J	.
.	.	8qff/	.
4a	2A	8.bb-L	.
.	.	16aaJk	.
4g 4c#X	.	8aa	.
.	.	4dd#X	.
4a 4A)	4ryy	.	.
.	.	8een)	.
*v	*v	*	*
*clefF4	*	*
=29	=29	=29
*ped	*	*
4D	(4ff	.
4f 4d 4A	8.ggL	.
*Xped	*	*
.	16ffJk	.
*ped	*	*
4E-	4ee-	.
4g 4e- 4B- 4G	8.b-L	.
*Xped	*	*
.	16ccJk)	.
=30	=30	=30
!!pagebreak:original
*ped	*	*
4BB-	(4dd	.
*Xped	*	*
.	8qdd/	.
.	8qdd/L	.
.	8qff/J	.
4d 4B- 4F	8ee-L	.
.	16r	.
.	16ddJk	.
*ped	*	*
4C	4cc	.
4e- 4G 4E-	8.gL	.
*Xped	*	*
.	16aJk)	.
=31	=31	=31
*ped	*	*
4GG	(4b-	.
4d 4B- 4G	8.aL\	.
*Xped	*	*
.	16b-Jk	.
*ped	*	*
4EE-	4cc	.
.	8qcc/L	.
.	8qcc/	.
.	8qdd/	.
.	8qcc/J	.
*	*Xtuplet	*
4g 4c 4G	24bnLL	.
.	24cc	.
.	24cc#X	.
.	24dd	.
.	24ff	.
*Xped	*	*
.	24ee-JJ)	.
*	*tuplet	*
=32	=32	=32
*	*^	*
*ped	*	*	*
4DD	(4dd\	8rc	.
.	.	2.d	.
*clefG2	*	*	*
(>4f#X 4A	4.dd\	.	.
4g 4B-	.	.	.
*Xped	*	*	*
.	8dd\	.	.
*	*Xtuplet	*	*
8g#XL 8Bn	12ddL\	.	.
.	12dd	.	.
8aJ 8c)	.	8ryy	.
.	12ddJ)	.	.
*	*tuplet	*	*
*	*v	*v	*
*clefF4	*	*
=33	=33	=33
*ped	*	*
4GGG	(4dd	.
(4d 4D	8.ccL	.
*Xped	*	*
.	16b-Jk	.
.	8qa/L	.
.	8qb-/	.
.	8qcc/J	.
4e- 4c 4F#X	8b-L	.
.	8aJ)	.
4d 4D	4r	.
=34	=34	=34
4e- 4B- 4G	8r	.
.	(>8b-/	.
.	16qb-/LL	.
.	16qcc/JJ	.
*	*Xtuplet	*
4d 4D	12b-L	.
.	12a	.
.	12gJ	.
*	*tuplet	*
4e- 4c 4A	4f#X)	.
4d 4D)	4r	.
=35	=35	=35
!!linebreak:original
*ped	*	*
4GG	(>4g	.
4d 4B- 4G	8.aL	.
*Xped	*	*
.	16b-Jk	.
*ped	*	*
4CC	4cc	.
4g 4e- 4c 4G	8.ddL	.
*Xped	*	*
.	16ee-Jk	.
=36	=36	=36
*ped	*	*
(>4FF	8ee-L	.
.	8aJ)	.
4g 4e-	8r	.
.	[8aa^<	.
*Xped	*	*
*	*cue	*
*	*rscale:4	*
4f 4d	(32aaLL]\	.
.	32gg#X	.
.	32ggn	.
.	32ff#X	.
.	32ffn	.
.	32een	.
.	32ee-X	.
.	32cc	.
4e- 4c	32a	.
.	32g-X	.
.	32en	.
.	32f	.
.	32gn	.
.	32a	.
.	32b-	.
.	32ccJJ)	.
*	*Xcue	*
*	*rscale:1	*
=37	=37	=37
*ped	*	*
4BB- 4BBB-)	(4dd	.
.	8qc#X/L	.
.	8qd/	.
.	8qf/J	.
*	*Xtuplet	*
4F	12ddL	.
*Xped	*	*
.	12cc	.
.	12b-J	.
*	*tuplet	*
.	8qcn/L	.
.	8qd/	.
.	8qf#X/J	.
*ped	*	*
4DD	8b-L	.
.	8aJ)	.
[4D^<	4r	.
=38	=38	=38
.	(>8qB-/L	.
*Xped	*	*
.	8qd/	.
.	8qg/J	.
*ped	*	*
4D]\ 4GG	4b-/	.
4d 4D	8.aL	.
.	16gJk	.
4e- 4c 4A	2f#X)	.
4d 4D	.	.
=39	=39	=39
*^	*^	*
!!linebreak:original
2ryy	4B- 4E-	(4g	4e-	.
.	4G 4BB-	8.aL	4d	.
.	.	16b-Jk	.	.
2A	4E- 4AA	4cc\ 4g	2c	.
.	[>4D	4dd\ 4f#X	.	.
=40	=40	=40	=40	=40
4D]	2.GG	2g)	4r<	.
4D\	.	.	(>4B-</	.
4D\	.	2r	4B-</	.
4D\	4FF	.	4B-</ 4A<	.
*v	*v	*	*	*
*	*v	*v	*
==41	==41	==41
*k[b-e-a-]	*k[b-e-a-]	*
4EE-\	4B-< 4G< 4E-<	p
4AA-\	4c< 4A-< 4E-<	.
4AA-\	4c< 4A-< 4E-<	.
4EE-\	4B-< 4G< 4E-<	.
=42	=42	=42
4AA-\	4c< 4A-< 4E-<	.
4EE-\	4e- 4B-< 4G<	.
4BB-\	4d< 4B-< 4F<	.
4EE-\	4e- 4B-< 4G<	.
=43	=43	=43
4BB-\	4f 4d 4B-	.
4E-\	4g 4e- 4B-	.
4AA-\	4a- 4e- 4c	.
4E-\	4g 4e- 4B-	.
=44	=44	=44
4BB-\	4f 4d 4B-	.
4C\	4e- 4c 4G<	.
.	&(8qg/	.
4BB-\	4f 4d 4A-<&)	.
[<4EE-\	4e- 4G<	.
=45	=45	=45
4E-\ 4EE-]	4B-< 4G<	.
4AA-\	4c< 4A-< 4E-<	.
4AA-\	4c< 4A-< 4E-<	.
4EE-\	4B-< 4G< 4E-<	.
=46	=46	=46
!!linebreak:original
4AA-\	4c< 4A-< 4E-<	.
4EE-\	4e- 4B-< 4G<	.
4BB-\	4d 4B-< 4F<	.
4EE-\	4e- 4B-< 4G<	.
=47	=47	=47
4BB-\	4f 4d 4B-	.
4E-\	4g 4e- 4B-	.
4AA-\	4a- 4e- 4c	.
4E-\	4g 4e- 4B-	.
=48	=48	=48
4BB-\	4f 4d 4B-	.
4C\	4e- 4c 4G<	.
.	&(8qg/	.
4BB-\	4f 4d 4A-<&)	.
[<4EE-\	(>4e- 4G<)	.
=49	=49	=49
4E-\ 4EE-]	4g 4e- 4B-	<
4BB-\ 4BBB-	4g 4d 4G<	.
4C\ 4CC	4g 4e- 4c	.
4D\ 4DD	4f#X 4d 4A-<	.
=50	=50	=50
4AAn\ 4AAAn	4fn 4c	.
4BB-\ 4BBB-	4f 4d	.
4GG\ 4GGG	4b- 4d 4B-	.
4C\ 4CC	4g 4en 4c	.
=51	=51	=51
4FF\ 4FFF	4a- 4f 4c	.
4BB-\ 4BBB-	4b- 4f 4d	.
4C\ 4CC	4g 4en 4B-	>
4F\ 4FF	4f 4A-	.
=52	=52	=52
4FF 4FFF	4a- 4f 4c	.
.	8qcc/	.
4BB- 4BBB-	4b- 4f 4d	.
4C 4CC	4g 4en 4B-	.
4FF	4f [4A-	]
=53	=53	=53
!!linebreak:original
4AA-\ 4AAA-	4e- 4c 4A-<]	.
4EE-\ 4EEE-	4e- 4c 4G<	<
4GG\ 4GGG	4e- 4B-< 4G<	.
4BB-\ 4BBB-	4d 4B-< 4F<	.
=54	=54	=54
4FF\ 4FFF	4d 4An<	.
4GG\ 4GGG	4d 4B-<	.
4EEn\ 4EEEn	4g 4d 4B-< 4G<	.
4AAn\ 4AAAn	4c#X 4A< 4E-<	.
=55	=55	=55
!LO:TX:B:b:t=Con	!	!
*8ba	*	*
4DDD\	4d 4An< 4F#X<	.
4CCC\	4e- 4c 4G<	.
4CCC\	4e- 4c 4G<	.
4DDD\	4d 4A< 4F#<)	>
=56	=56	=56
4DDD\	(>4d 4An< 4F#X<	.
4CCC\	4e- 4c 4G<	.
4FFF\	4c< 4A-X< 4Fn<	.
4BBB-\	4B-< 4F< 4D<	]
*X8ba	*	*
=57	=57	=57
4EE-\	4B-< 4G< 4E-<	p
4AA-\ 4AAA-	4c< 4A-< 4E-<	.
4AA-\ 4AAA-	4c< 4A-< 4E-<	.
4EE-\	4B-< 4G< 4E-<	.
=58	=58	=58
4AA-\	4c< 4A-< [>4E-<	.
4EE-\	4e- 4B-< 4G< 4E-<]	.
4BB-\ 4BBB-	4d 4B-< 4F<	.
4EE-\	4e- 4B-< 4G<	.
=59	=59	=59
4BB-\	4f 4d 4B-	.
4E-\	4g 4e- 4B-	.
4AA-\	4a- 4e- 4c	.
4E-\	4g 4e- 4B-	.
=60	=60	=60
!!linebreak:original
4BB-\	4f 4d 4B-	.
4C\	4e- 4c 4G<	.
.	&(8qg/	.
4BB-\	4f 4d 4A-<&)	.
[<4EE-\	4e- 4G<	.
=61	=61	=61
4E-\ 4EE-]	4B-< 4G<	.
4AA-\ 4AAA-	4c< 4A-< 4E-<	.
4AA-\ 4AAA-	4c< 4A-< 4E-<	.
4EE-\	4B-<; 4G< 4E-<)	.
=62	=62	=62
4AA-\	(>4c< 4A-< 4E-<	.
4EE-\	4e- 4B-< 4G<	.
[4BB-\	4d 4B-< 4F<	.
4BB-]\ 4EE-	4e-; 4B-< 4G<)	.
=63	=63	=63
4BB-\	(>4f 4d 4B-	.
4B- 4E-	4g 4e- 4d-X	.
.	&(8qb-/	.
4AA-\	4a- 4e- 4c&)	.
4C\	4g; 4en 4B-)	.
=64	=64	=64
4C\ 4FF	(>4f 4c< 4A-<	.
4C\ 4CC	4e- 4c< 4G<	.
.	&(8qg/	.
4C\ 4FF	4f 4c< 4A-<&)	.
4C\ 4CC	4e-; 4c< 4G<)	<
*ped	*	*
=65	=65	=65
1FF#X: 1FFF#X	[<1d: 1A-<: 1D<	.
.	.	[
=66	=66	=66
*	*^	*
1rF	4r	1d]	.
.	(>4dd	.	.
.	4dd	.	.
.	8ddL	.	.
*Xped	*	*	*
.	8ddJ	.	.
*	*v	*v	*
==67	==67	==67
!!pagebreak:original
*k[b-e-an]	*k[b-e-an]	*
*ped	*	*
(>4GG 4GGG	4dd	[
4d 4D	8ccL	.
.	8b-J	.
*Xped	*	*
.	8qa/L	.
.	8qb-/	.
.	8qcc/J	.
4e- 4c 4F#X	8b-L\	.
.	8aJ)	.
4d 4D	4r	.
=68	=68	=68
4e- 4B- 4G	8r	.
.	(>8b-/	.
*	*Xtuplet	*
4d 4D	12b-L	.
.	12a	.
.	12gJ	.
*	*tuplet	*
4e- 4c 4A	2f#X)	.
4d 4D)	.	.
=69	=69	=69
*ped	*	*
4GG	(>4g	.
4d 4B- 4G	8aL	.
*Xped	*	*
.	8b-J	.
*ped	*	*
4CC	4cc	.
4g 4e- 4c 4G	8ddL	.
*Xped	*	*
.	8ee-J)	.
=70	=70	=70
*ped	*	*
4FF	([2a	.
(4g 4e-	.	.
4f 4d	8.aL]	.
.	16ggJk	.
*	*Xtuplet	*
4e- 4c)	12ggL	.
.	12ff	.
.	12ee-J)	.
*	*tuplet	*
=71	=71	=71
*	*^	*
!!linebreak:original
*ped	*	*	*
4BB- 4BBB-	(>4dd	2ryy	.
.	(<8qd/	.	.
.	8qd/L	.	.
.	8qf/	.	.
.	8qb-/J	.	.
*	*Xtuplet	*	*
4F	12ddL/	.	.
*Xped	*	*	*
.	12cc	.	.
.	12b-J)	.	.
*	*tuplet	*	*
.	.	[8qc/L	.
.	.	[8qd/	.
.	.	[8qf#X/J	.
*ped	*	*	*
4DD	8b-L	4f#] 4d] 4c]	.
.	8aJ)	.	.
*Xped	*	*	*
[4D	4r	4ryy	.
*	*v	*v	*
=72	=72	=72
.	8qB-/L	.
.	8qd/	.
.	8qg/J	.
*ped	*	*
4D]\ 4GG	(8b-L	.
.	16r	.
.	16b-Jk	.
.	8qb-/LL	.
.	8qcc/JJ	.
(4d 4D	12b-L	.
*Xped	*	*
.	12a^>	.
.	12g^>J	.
4e- 4c 4A	6f#X^>)	.
.	12ryy	.
4d 4D	4r	.
=73	=73	=73
*^	*^	*
2ryy	4B- 4E-	(4g	4e-/	.
.	4G 4BB-)	8.aL	4d	.
.	.	16b-Jk	.	.
2A	4E- 4AA	4cc 4g	2c	.
.	[>4D	4dd 4f#X)	.	.
*v	*v	*	*	*
=74	=74	=74	=74
4D]\ 4GG	(4.g	4rA	.
4d 4G	.	4B-	.
.	8g	.	<
.	16qg/LL	.	.
.	16qa/JJ	.	.
*ped	*	*	*
4FF	2at)	2ryy	.
4f 4e- 4c 4F	.	.	.
*Xped	*	*	*
*	*v	*v	*
.	16qg/LL	[
.	16qa/JJ	.
=75	=75	=75
*^	*	*
!!linebreak:original
(4d 4B-	4ryy	(4b-	.
4f\	2F	4bn)	.
4e-\ 4A	.	8r	.
.	.	(4cc^<	.
4f\	[>4F	.	.
.	.	8cc#X)	.
=76	=76	=76	=76
4d\ 4B-	4F]	(4dd	.
.	.	8qdd/L	.
.	.	8qee-/	.
.	.	8qdd/	.
.	.	8qcc#X/	.
.	.	8qdd/J	.
.	.	8qdd/	.
4f\	2F	8.ggL	.
.	.	16ffJk	.
4e-\ 4A	.	8ff	.
.	.	4ccny	.
4f\	4F	.	.
*clefG2	*	*	*
.	.	8cc#X	.
=77	=77	=77	=77
4f	2d 2B-	4dd	.
2g	.	4ee-)	.
.	2c#X [2A	4r	.
4g	.	(4een	.
=78	=78	=78	=78
4f	4d 4A]	4ff	.
.	.	8qff/L	.
.	.	8qgg/	.
.	.	8qff/	.
.	.	8qeen/	.
.	.	8qff/J	.
.	.	8qff/	.
4a	2A	8.bb-L	.
.	.	16aaJk	.
4g 4c#X	.	8aa	.
.	.	4dd#X	.
4a 4A	4ryy	.	.
.	.	8een	.
*v	*v	*	*
*clefF4	*	*
=79	=79	=79
*ped	*	*
4D)	4ff	.
4f 4d 4A	8.ggL	.
*Xped	*	*
.	16ffJk	.
*ped	*	*
4E-	4ee-	.
4g 4e- 4B- 4G	8.b-L	.
*Xped	*	*
.	16ccJk)	.
=80	=80	=80
!!linebreak:original
*ped	*	*
4BB-	(4dd	.
.	8qdd/	.
.	8qdd/L	.
.	8qff/J	.
4d 4B- 4F	8ee-L	.
*Xped	*	*
.	16r	.
.	16ddJk	.
*ped	*	*
4C	4cc	.
4e- 4G 4E-	8.gL	.
*Xped	*	*
.	16aJk)	.
=81	=81	=81
*ped	*	*
4GG	(4b-	.
4d 4B- 4G	8.aL	.
*Xped	*	*
.	16b-Jk	.
*ped	*	*
4EE-	4cc	.
.	8qcc/L	.
.	8qdd/	.
.	8qcc/J	.
4g 4c 4G	16bnLL	.
.	16cc	.
*Xped	*	*
.	16dd	.
.	8qqff/	.
.	16ee-JJ)	.
=82	=82	=82
*	*^	*
*ped	*	*	*
4DD	(>4dd\	4r	.
*clefG2	*	*	*
(>4f#X 4A	4.dd\	2.d^<	.
*Xped	*	*	*
4g 4B-	.	.	.
.	8dd\	.	.
*	*Xtuplet	*	*
8g#XL 8Bn	12ddL\	.	.
.	12dd	.	.
8aJ 8c)	.	.	.
.	12ddJ)	.	.
*	*tuplet	*	*
*	*v	*v	*
*clefF4yy	*	*
=83	=83	=83
*ped	*	*
4GGG	(4dd	.
(>4d 4D	8.ccL	.
*Xped	*	*
.	16b-Jk	.
.	8qa/L	.
.	8qb-/	.
.	8qcc/J	.
4e- 4c 4F#X	8b-L	.
.	8aJ)	.
4d 4D	4r	.
=84	=84	=84
!!linebreak:original
4e- 4B- 4G	8r	.
.	(>8b-/	.
.	16qb-/LL	.
.	16qcc/JJ	.
*	*Xtuplet	*
4d 4D	12b-L	.
.	12a	.
.	12gJ	.
*	*tuplet	*
4e- 4c 4A	4f#X)	.
4d 4D	4r	.
=85	=85	=85
*ped	*	*
4GG)	(>4g	.
4d 4B- 4G	8.aL	.
*Xped	*	*
.	16b-Jk	.
*ped	*	*
4CC	4cc	.
4g 4e- 4c 4G	8.ddL	.
*Xped	*	*
.	16ee-Jk	.
=86	=86	=86
*ped	*	*
(>4FF	8ee-L	.
.	8aJ)	.
4g 4e-	8r	.
.	[8aa^<	.
*	*cue	*
*	*rscale:4	*
4f 4d	(32aaLL]\	.
.	32gg#X	.
.	32ggn	.
.	32ff#X	.
.	32ffn	.
.	32een	.
.	32ee-X	.
.	32cc	.
4e- 4c	32a	.
.	32g-X	.
.	32en	.
.	32f	.
.	32gn	.
.	32a	.
.	32b-	.
.	32ccJJ)	.
*	*Xcue	*
*	*rscale:1	*
=87	=87	=87
*ped	*	*
4BB- 4BBB-)	(4dd	.
.	8qc#X/L	.
.	8qd/	.
.	8qf/J	.
*	*Xtuplet	*
4F	12ddL	.
*Xped	*	*
.	12cc	.
.	12b-J	.
*	*tuplet	*
.	8qc#/L	.
.	8qd/	.
.	8qf#X/J	.
*ped	*	*
4DD	8b-L	.
.	8aJ)	.
[4D^<	4r	.
*Xped	*	*
=88	=88	=88
!!linebreak:original
.	8qB-/L	.
.	8qd/	.
.	8qg/J	.
*ped	*	*
4D]\ 4GG	(>4b-/	.
(4d 4D	8.aL	.
.	16gJk	.
*Xped	*	*
4e- 4c 4A	2f#X)	.
4d 4D	.	.
=89	=89	=89
*^	*^	*
2ryy	4B- 4E-)	(4g	4e-	.
.	4G 4BB-	8.aL	4d	.
.	.	16b-Jk	.	.
2A	4E- 4AA	4cc 4g	2c	.
.	4D	4dd 4f#X)	.	.
=90	=90	=90	=90	=90
!	!	!LO:TX:i:t=ritenuto	!	!
4rA	2GG	(2.g	4rA	.
4G\	.	.	4fny 4Bn	.
2ryy	4G 4C	.	4en 4c	.
.	4G 4C	8.ccL	4g 4e-X	.
*ped	*	*	*	*
.	.	16bnJk)	.	.
*v	*v	*	*	*
*	*v	*v	*
=91	=91	=91
N(>[4qqGG/	.	.
[4qqD/	.	.
1D;<] 1GG]	1b; 1g 1d	.
.	4qqG<	.
.	4qqBn</	.
=-	=-	=-
.	4qqd/	.
.	4qqb	.
.	4qqb\	.
.	4qqdd\	.
.	4qqbb-\	.
!	!LO:TX:B:t=FIN.	!
1ryy	1bb-;\N)	.
==	==	==
*-	*-	*-
!!!system-decoration: {(s1,s2)}
!!title: @{OTL}; @{OPS} @{ONM} publisher: @{OCL}
!!!RDF**kern: > = above
!!!RDF**kern: < = below
!!!RDF**kern: N = linked
!!!ENC: Marta Lawrence
!!!END: 2018-07-01
!!!EED: Emilia Ziętek
!!!EST: revision finished 2018-07-06